map_marker_monochrome/openmoji_milk_jug.svg

<svg xmlns="http://www.w3.org/2000/svg" width="24" height="24" viewBox="0 0 24 24"> <g transform="translate(0.0 1.4209425982461195) scale(0.4231622960701552)">
  
  <g
     id="line"
     transform="translate(-10.972634,-11)">
    <path
       fill="#000"
       d="m 12,12 v -1 c -0.5172,0 -0.949,0.3944 -0.9959,0.9095 z m 2.7716,10.3345 0.9295,-0.3689 z M 18,34 h -1 c 0,0.5523 0.4477,1 1,1 z m 0.6674,-0.0087 0.9966,0.083 C 19.6876,33.791 19.5895,33.5111 19.3942,33.3045 19.199,33.0978 18.925,32.9841 18.6409,32.9916 Z M 16.9513,54.5848 15.9547,54.5017 Z M 54.668,54.6881 53.67,54.7505 Z M 52.3125,17 53.3106,16.9376 v -10e-5 z m -0.0195,-0.3119 -0.998,0.0624 v 10e-5 z m -0.2344,-3.7505 0.9981,-0.0624 v 0 z M 12,13 h 9.4202 V 11 H 12 Z m 3.7011,8.9656 C 14.9233,20.0057 14.1856,18.145 13.6698,16.4378 13.1503,14.7187 12.8897,13.2589 12.9959,12.0905 l -1.9918,-0.181 c -0.1416,1.5576 0.2098,3.3151 0.7512,5.1068 0.545,1.8036 1.317,3.7471 2.0869,5.687 z M 19,34 c 0,-3.7631 -1.7484,-8.1273 -3.2989,-12.0344 l -1.8589,0.7377 C 15.4414,26.7333 17,30.702 17,34 Z M 18.6409,32.9916 C 18.4315,32.9972 18.2179,33 18,33 v 2 c 0.2351,0 0.4664,-0.003 0.694,-0.0091 z m -0.97,0.9166 -1.7162,20.5935 1.9931,0.1661 1.7162,-20.5935 z M 15.9547,54.5017 C 15.6632,57.9998 18.4238,61 21.934,61 v -2 c -2.3402,0 -4.1805,-2.0001 -3.9862,-4.3322 z M 21.934,61 H 49.6777 V 59 H 21.934 Z m 27.7437,0 c 3.461,0 6.2043,-2.9201 5.9884,-6.3743 L 53.67,54.7505 C 53.8139,57.0533 51.985,59 49.6777,59 Z m 5.9884,-6.3743 -2.3555,-37.6881 -1.9961,0.1248 2.3555,37.6881 z m -2.3555,-37.6882 -0.0195,-0.3118 -1.9961,0.1249 0.0195,0.3119 z M 53.2911,16.6257 53.0567,12.8752 51.0606,13 51.295,16.7505 Z M 53.0567,12.8752 C 52.9908,11.8212 52.1167,11 51.0606,11 v 2 0 z M 51.0606,11 h -3.7579 v 2 h 3.7579 z m -3.7579,0 H 30.5 v 2 H 47.3027 Z M 30.5,11 h -5.3993 v 2 H 30.5 Z m -5.3993,0 h -3.6805 v 2 h 3.6805 z"
       id="path2" />
    <path
       fill="none"
       stroke="#000"
       stroke-linecap="round"
       stroke-width="2"
       d="m 20.25,15 c -0.5793,6.9519 -1.0664,12.7967 -1.5417,18.5"
       id="path4" />
    <path
       fill="none"
       stroke="#000"
       stroke-linecap="round"
       stroke-linejoin="round"
       stroke-width="2"
       d="M 54.5,21.5 54.4293,19.5733 C 54.3877,18.4408 55.2946,17.5 56.428,17.5 h 8.2607 c 1.2189,0 2.1544,1.081 1.9793,2.2873 l -3.9194,27 C 62.6059,47.7706 61.7629,48.5 60.7694,48.5 H 58 c -1.1046,0 -2,-0.8954 -2,-2 v -1.5623"
       id="path6" />
  </g>
</g></svg>

<svg xmlns="http://www.w3.org/2000/svg" width="24" height="24" viewBox="0 0 24 24"> <g transform="scale(0.333333333)">  <g id="line">
    <path fill="#000" d="M12 12V11C11.4828 11 11.051 11.3944 11.0041 11.9095L12 12ZM14.7716 22.3345L15.7011 21.9656L14.7716 22.3345ZM18 34H17C17 34.5523 17.4477 35 18 35V34ZM18.6674 33.9913L19.664 34.0743C19.6876 33.791 19.5895 33.5111 19.3942 33.3045C19.199 33.0978 18.925 32.9841 18.6409 32.9916L18.6674 33.9913ZM16.9513 54.5848L15.9547 54.5017L16.9513 54.5848ZM54.668 54.6881L53.67 54.7505L54.668 54.6881ZM52.3125 17L53.3106 16.9376L53.3106 16.9375L52.3125 17ZM52.293 16.6881L51.295 16.7505L51.295 16.7506L52.293 16.6881ZM52.0586 12.9376L53.0567 12.8752V12.8752L52.0586 12.9376ZM12 13H21.4202V11H12V13ZM15.7011 21.9656C14.9233 20.0057 14.1856 18.145 13.6698 16.4378C13.1503 14.7187 12.8897 13.2589 12.9959 12.0905L11.0041 11.9095C10.8625 13.4671 11.2139 15.2246 11.7553 17.0163C12.3003 18.8199 13.0723 20.7634 13.8422 22.7033L15.7011 21.9656ZM19 34C19 30.2369 17.2516 25.8727 15.7011 21.9656L13.8422 22.7033C15.4414 26.7333 17 30.702 17 34H19ZM18.6409 32.9916C18.4315 32.9972 18.2179 33 18 33V35C18.2351 35 18.4664 34.997 18.694 34.9909L18.6409 32.9916ZM17.6709 33.9082L15.9547 54.5017L17.9478 54.6678L19.664 34.0743L17.6709 33.9082ZM15.9547 54.5017C15.6632 57.9998 18.4238 61 21.934 61V59C19.5938 59 17.7535 56.9999 17.9478 54.6678L15.9547 54.5017ZM21.934 61H49.6777V59H21.934V61ZM49.6777 61C53.1387 61 55.882 58.0799 55.6661 54.6257L53.67 54.7505C53.8139 57.0533 51.985 59 49.6777 59V61ZM55.6661 54.6257L53.3106 16.9376L51.3145 17.0624L53.67 54.7505L55.6661 54.6257ZM53.3106 16.9375L53.2911 16.6257L51.295 16.7506L51.3145 17.0625L53.3106 16.9375ZM53.2911 16.6257L53.0567 12.8752L51.0606 13L51.295 16.7505L53.2911 16.6257ZM53.0567 12.8752C52.9908 11.8212 52.1167 11 51.0606 11V13V13L53.0567 12.8752ZM51.0606 11H47.3027V13H51.0606V11ZM47.3027 11H30.5V13H47.3027V11ZM30.5 11H25.1007V13H30.5V11ZM25.1007 11H21.4202V13H25.1007V11Z"/>
    <path fill="none" stroke="#000" stroke-linecap="round" stroke-width="2" d="M20.25 15C19.6707 21.9519 19.1836 27.7967 18.7083 33.5"/>
    <path fill="none" stroke="#000" stroke-linecap="round" stroke-linejoin="round" stroke-width="2" d="M54.5 21.5L54.4293 19.5733C54.3877 18.4408 55.2946 17.5 56.428 17.5H64.6887C65.9076 17.5 66.8431 18.581 66.668 19.7873L62.7486 46.7873C62.6059 47.7706 61.7629 48.5 60.7694 48.5H58C56.8954 48.5 56 47.6046 56 46.5V44.9377"/>
  </g></g></svg>
